flaticon/essential/settings-6.svg

<svg xmlns="http://www.w3.org/2000/svg" width="32" height="32" viewBox="0 0 24 24">
    <path d="M 12 5.777344 C 8.570312 5.777344 5.777344 8.570312 5.777344 12 C 5.777344 15.429688 8.570312 18.222656 12 18.222656 C 15.429688 18.222656 18.222656 15.429688 18.222656 12 C 18.222656 8.570312 15.429688 5.777344 12 5.777344 Z M 12 17.332031 C 9.058594 17.332031 6.667969 14.941406 6.667969 12 C 6.667969 9.058594 9.058594 6.667969 12 6.667969 C 14.941406 6.667969 17.332031 9.058594 17.332031 12 C 17.332031 14.941406 14.941406 17.332031 12 17.332031 Z M 12 17.332031"/>
    <path d="M 22.765625 9.332031 L 21.867188 9.332031 C 21.636719 8.484375 21.300781 7.671875 20.863281 6.90625 L 21.496094 6.273438 C 21.730469 6.039062 21.859375 5.730469 21.859375 5.402344 C 21.859375 5.070312 21.730469 4.761719 21.496094 4.527344 L 19.472656 2.503906 C 19.007812 2.035156 18.191406 2.035156 17.726562 2.503906 L 17.089844 3.136719 C 16.328125 2.699219 15.515625 2.363281 14.667969 2.132812 L 14.667969 1.234375 C 14.667969 0.554688 14.113281 0 13.429688 0 L 10.570312 0 C 9.886719 0 9.332031 0.554688 9.332031 1.234375 L 9.332031 2.132812 C 8.484375 2.363281 7.671875 2.699219 6.90625 3.136719 L 6.273438 2.503906 C 5.808594 2.035156 4.992188 2.035156 4.527344 2.503906 L 2.503906 4.527344 C 2.269531 4.761719 2.140625 5.070312 2.140625 5.402344 C 2.140625 5.730469 2.269531 6.039062 2.503906 6.273438 L 3.136719 6.910156 C 2.699219 7.671875 2.359375 8.484375 2.132812 9.332031 L 1.234375 9.332031 C 0.554688 9.332031 0 9.886719 0 10.570312 L 0 13.429688 C 0 14.113281 0.554688 14.667969 1.234375 14.667969 L 2.132812 14.667969 C 2.363281 15.515625 2.699219 16.328125 3.136719 17.09375 L 2.503906 17.726562 C 2.269531 17.960938 2.140625 18.269531 2.140625 18.597656 C 2.140625 18.929688 2.269531 19.238281 2.503906 19.472656 L 4.527344 21.496094 C 4.992188 21.964844 5.808594 21.964844 6.273438 21.496094 L 6.910156 20.863281 C 7.671875 21.300781 8.484375 21.640625 9.332031 21.867188 L 9.332031 22.765625 C 9.332031 23.445312 9.886719 24 10.570312 24 L 13.429688 24 C 14.113281 24 14.667969 23.445312 14.667969 22.765625 L 14.667969 21.867188 C 15.515625 21.640625 16.328125 21.300781 17.09375 20.863281 L 17.726562 21.496094 C 18.191406 21.964844 19.007812 21.964844 19.472656 21.496094 L 21.496094 19.472656 C 21.730469 19.242188 21.859375 18.929688 21.859375 18.597656 C 21.859375 18.269531 21.730469 17.960938 21.496094 17.726562 L 20.863281 17.09375 C 21.300781 16.328125 21.640625 15.515625 21.867188 14.667969 L 22.765625 14.667969 C 23.445312 14.667969 24 14.113281 24 13.429688 L 24 10.570312 C 24 9.886719 23.445312 9.332031 22.765625 9.332031 Z M 23.109375 13.429688 C 23.109375 13.621094 22.957031 13.777344 22.765625 13.777344 L 21.167969 13.777344 L 21.089844 14.121094 C 20.855469 15.117188 20.464844 16.058594 19.925781 16.925781 L 19.738281 17.226562 L 20.867188 18.355469 C 21.003906 18.488281 21.003906 18.710938 20.867188 18.84375 L 18.84375 20.867188 C 18.710938 21.003906 18.488281 21.003906 18.355469 20.867188 L 17.226562 19.738281 L 16.925781 19.925781 C 16.058594 20.464844 15.117188 20.855469 14.121094 21.089844 L 13.777344 21.167969 L 13.777344 22.765625 C 13.777344 22.957031 13.621094 23.109375 13.429688 23.109375 L 10.570312 23.109375 C 10.378906 23.109375 10.222656 22.957031 10.222656 22.765625 L 10.222656 21.167969 L 9.878906 21.089844 C 8.882812 20.855469 7.941406 20.464844 7.074219 19.925781 L 6.773438 19.738281 L 5.644531 20.867188 C 5.511719 21.003906 5.289062 21.003906 5.15625 20.867188 L 3.132812 18.84375 C 2.996094 18.710938 2.996094 18.488281 3.132812 18.355469 L 4.261719 17.226562 L 4.074219 16.925781 C 3.535156 16.058594 3.144531 15.117188 2.910156 14.121094 L 2.832031 13.777344 L 1.234375 13.777344 C 1.042969 13.777344 0.890625 13.621094 0.890625 13.429688 L 0.890625 10.570312 C 0.890625 10.378906 1.042969 10.222656 1.234375 10.222656 L 2.832031 10.222656 L 2.910156 9.878906 C 3.144531 8.882812 3.535156 7.941406 4.074219 7.074219 L 4.261719 6.773438 L 3.132812 5.644531 C 2.996094 5.511719 2.996094 5.289062 3.132812 5.15625 L 5.15625 3.132812 C 5.289062 2.996094 5.511719 2.996094 5.644531 3.132812 L 6.773438 4.261719 L 7.074219 4.074219 C 7.941406 3.535156 8.882812 3.144531 9.878906 2.910156 L 10.222656 2.832031 L 10.222656 1.234375 C 10.222656 1.042969 10.378906 0.890625 10.570312 0.890625 L 13.429688 0.890625 C 13.621094 0.890625 13.777344 1.042969 13.777344 1.234375 L 13.777344 2.832031 L 14.121094 2.910156 C 15.117188 3.144531 16.058594 3.535156 16.925781 4.074219 L 17.226562 4.261719 L 18.355469 3.132812 C 18.488281 2.996094 18.710938 2.996094 18.84375 3.132812 L 20.867188 5.15625 C 21.003906 5.289062 21.003906 5.511719 20.867188 5.644531 L 19.738281 6.773438 L 19.925781 7.074219 C 20.464844 7.941406 20.855469 8.882812 21.089844 9.878906 L 21.167969 10.222656 L 22.765625 10.222656 C 22.957031 10.222656 23.109375 10.378906 23.109375 10.570312 Z M 23.109375 13.429688"/>
    <path d="M 12 7.554688 C 9.550781 7.554688 7.554688 9.550781 7.554688 12 C 7.554688 14.449219 9.550781 16.445312 12 16.445312 C 14.449219 16.445312 16.445312 14.449219 16.445312 12 C 16.445312 9.550781 14.449219 7.554688 12 7.554688 Z M 12 15.554688 C 10.039062 15.554688 8.445312 13.960938 8.445312 12 C 8.445312 10.039062 10.039062 8.445312 12 8.445312 C 13.960938 8.445312 15.554688 10.039062 15.554688 12 C 15.554688 13.960938 13.960938 15.554688 12 15.554688 Z M 12 15.554688"/>
</svg>

<svg xmlns="http://www.w3.org/2000/svg" width="32" height="32" viewBox="0 0 24 24">
    <path d="M12 5.777A6.232 6.232 0 0 0 5.777 12 6.232 6.232 0 0 0 12 18.223 6.232 6.232 0 0 0 18.223 12 6.232 6.232 0 0 0 12 5.777zm0 11.555A5.336 5.336 0 0 1 6.668 12 5.336 5.336 0 0 1 12 6.668 5.336 5.336 0 0 1 17.332 12 5.336 5.336 0 0 1 12 17.332zm0 0"/>
    <path d="M22.766 9.332h-.899a10.36 10.36 0 0 0-1.004-2.426l.633-.633a1.226 1.226 0 0 0 0-1.746l-2.023-2.023c-.465-.469-1.282-.469-1.746 0l-.637.633a10.263 10.263 0 0 0-2.422-1.004v-.899C14.668.554 14.113 0 13.43 0h-2.86c-.683 0-1.238.555-1.238 1.234v.899c-.848.23-1.66.566-2.426 1.004l-.633-.633c-.464-.469-1.28-.469-1.746 0L2.504 4.527a1.226 1.226 0 0 0-.363.875c0 .328.129.637.363.871l.633.637a10.102 10.102 0 0 0-1.004 2.422h-.899C.554 9.332 0 9.887 0 10.57v2.86c0 .683.555 1.238 1.234 1.238h.899c.23.848.566 1.66 1.004 2.426l-.633.633a1.224 1.224 0 0 0-.363.87c0 .333.129.641.363.876l2.023 2.023c.465.469 1.282.469 1.746 0l.637-.633c.762.438 1.574.778 2.422 1.004v.899c0 .68.555 1.234 1.238 1.234h2.86c.683 0 1.238-.555 1.238-1.234v-.899c.848-.226 1.66-.566 2.426-1.004l.633.633c.464.469 1.28.469 1.746 0l2.023-2.023a1.22 1.22 0 0 0 .363-.875c0-.328-.129-.637-.363-.871l-.633-.633c.438-.766.778-1.578 1.004-2.426h.899c.68 0 1.234-.555 1.234-1.238v-2.86c0-.683-.555-1.238-1.234-1.238zm.343 4.098a.345.345 0 0 1-.343.347h-1.598l-.078.344a9.353 9.353 0 0 1-1.164 2.805l-.188.3 1.13 1.13a.342.342 0 0 1 0 .488l-2.024 2.023a.342.342 0 0 1-.489 0l-1.128-1.129-.301.188c-.867.539-1.809.93-2.805 1.164l-.344.078v1.598a.345.345 0 0 1-.347.343h-2.86a.345.345 0 0 1-.347-.343v-1.598l-.344-.078a9.353 9.353 0 0 1-2.805-1.164l-.3-.188-1.13 1.13a.342.342 0 0 1-.488 0l-2.023-2.024a.342.342 0 0 1 0-.489l1.129-1.128-.188-.301A9.353 9.353 0 0 1 2.91 14.12l-.078-.344H1.234a.345.345 0 0 1-.343-.347v-2.86c0-.191.152-.347.343-.347h1.598l.078-.344a9.353 9.353 0 0 1 1.164-2.805l.188-.3-1.13-1.13a.342.342 0 0 1 0-.488l2.024-2.023a.342.342 0 0 1 .489 0l1.128 1.129.301-.188A9.353 9.353 0 0 1 9.88 2.91l.344-.078V1.234c0-.191.156-.343.347-.343h2.86c.191 0 .347.152.347.343v1.598l.344.078a9.353 9.353 0 0 1 2.805 1.164l.3.188 1.13-1.13a.342.342 0 0 1 .488 0l2.023 2.024a.342.342 0 0 1 0 .489l-1.129 1.128.188.301c.539.867.93 1.809 1.164 2.805l.078.344h1.598c.191 0 .343.156.343.347zm0 0"/>
    <path d="M12 7.555A4.453 4.453 0 0 0 7.555 12 4.453 4.453 0 0 0 12 16.445 4.453 4.453 0 0 0 16.445 12 4.453 4.453 0 0 0 12 7.555zm0 8A3.558 3.558 0 0 1 8.445 12 3.558 3.558 0 0 1 12 8.445 3.558 3.558 0 0 1 15.555 12 3.558 3.558 0 0 1 12 15.555zm0 0"/>
</svg>
